X:1
L:1/16
M:none
K:D
V:1 treble
 V:1  z | z | z | z | z | z | z | z | z | z | A4 d4 A4 z2 A,2 | A,4- A,B,CDEFG A8 | 
  D4- DEFGABc d2cBA2 B2 |{A} G8 F4 z4 | 
